X: 1
T: Stony Point
R: jig
Z: 2011 John Chambers <jc:trillian.mit.edu>
S: printed MS of unknown origin
M: 6/8
L: 1/8
K: D
"A"[|] F/G/ \
| "D"A>BA FDF | dcd AFD | "D"FGA "(Bm)"def | "Em"e2E "A7"EAG \
| "D"FDF AFA | "G"BGB "A"cBA | "D"fed "A7"ABc | "D"d3{AF}D2 :|
"B"|: d/c/ \
| "G"BcA "D"def | "Em"gfe "D"agf | "A"ecA "D"FAd | "A7"A3 G3 \
| "D"FAd dAF | "Em"GBe eBG | "D"fed "A7"ABc | "D"d3{AF}D2 :|
